Catalina-dark/actions/22/edit-select-none.svg

<svg viewBox="0 0 22 22" xmlns="http://www.w3.org/2000/svg">
<defs>
<style id="current-color-scheme" type="text/css">.ColorScheme-NegativeText {
        color:#da4453;
      }
      .ColorScheme-Text {
        color:#dedede
      }</style>
</defs>
<path class="ColorScheme-Text" d="m3 3v1 3h1v-3h3v-1h-3-1zm12 0v1h3v3h1v-4h-4zm-0.96875 2.4375a2.5 2.5 0 0 0-2.5 2.5 2.5 2.5 0 0 0 2.5 2.5 2.5 2.5 0 0 0 2.5-2.5 2.5 2.5 0 0 0-2.5-2.5zm-6 0.0625a2.5 2.5 0 0 0-2.5 2.5 2.5 2.5 0 0 0 2.5 2.5 2.5 2.5 0 0 0 2.5-2.5 2.5 2.5 0 0 0-2.5-2.5zm-0.0625 6.0625a2.5 2.5 0 0 0-2.5 2.5 2.5 2.5 0 0 0 2.5 2.5 2.5 2.5 0 0 0 2.5-2.5 2.5 2.5 0 0 0-2.5-2.5zm-4.9688 3.4375v4h1 3v-1h-3v-3h-1z" fill="currentColor"/>
<path class="ColorScheme-NegativeText" d="m14.943 11c-0.7257 0-1.395 0.17944-2.0078 0.53711-0.61287 0.35761-1.0994 0.84221-1.457 1.4551-0.35774 0.61287-0.53516 1.2822-0.53516 2.0078 0 0.7257 0.17755 1.3949 0.53516 2.0078 0.35767 0.61274 0.84416 1.0974 1.457 1.4551 0.61287 0.35767 1.2821 0.53711 2.0078 0.53711 0.7257 0 1.395-0.17944 2.0078-0.53711 0.61281-0.35761 1.0974-0.84227 1.4551-1.4551 0.35761-0.61287 0.53711-1.2822 0.53711-2.0078 0-0.7257-0.17956-1.395-0.53711-2.0078-0.35767-0.61281-0.84227-1.0974-1.4551-1.4551-0.61294-0.35767-1.282-0.53711-2.0078-0.53711zm-1.1777 2.0156c0.090265 0 0.1684 0.033636 0.23438 0.099609l0.94336 0.94141 0.94141-0.94141c0.065845-0.065973 0.14411-0.099609 0.23438-0.099609 0.093781 0 0.17426 0.033636 0.24023 0.099609l0.46875 0.46875c0.065973 0.065973 0.099609 0.1445 0.099609 0.23828 0 0.090265-0.033636 0.16846-0.099609 0.23438l-0.94336 0.94336 0.94336 0.94336c0.065973 0.06591 0.099609 0.14411 0.099609 0.23438 0 0.093718-0.033636 0.17237-0.099609 0.23828l-0.46875 0.46875c-0.065973 0.065973-0.14645 0.099609-0.24023 0.099609-0.090266 0-0.16853-0.033636-0.23438-0.099609l-0.94141-0.94141-0.94336 0.94141c-0.065973 0.065973-0.14411 0.099609-0.23438 0.099609-0.093781 0-0.17426-0.033636-0.24023-0.099609l-0.46875-0.46875c-0.065973-0.06591-0.097657-0.14456-0.097657-0.23828 0-0.090265 0.031684-0.16846 0.097657-0.23438l0.94336-0.94336-0.94336-0.94336c-0.065973-0.06591-0.097657-0.14411-0.097657-0.23438 0-0.093782 0.031684-0.17231 0.097657-0.23828l0.46875-0.46875c0.065973-0.065973 0.14645-0.099609 0.24023-0.099609z" fill="currentColor"/>
</svg>

<svg xmlns="http://www.w3.org/2000/svg" viewBox="0 0 22 22">
  <defs id="defs3051">
    <style type="text/css" id="current-color-scheme">
      .ColorScheme-NegativeText {
        color:#da4453;
      }
      .ColorScheme-Text {
        color:#f2f2f2
      }
      </style>
  </defs>
 <path 
     style="fill:currentColor;fill-opacity:1;stroke:none"      
	 class="ColorScheme-Text"
     d="M 3 3 L 3 4 L 3 7 L 4 7 L 4 4 L 7 4 L 7 3 L 4 3 L 3 3 z M 15 3 L 15 4 L 18 4 L 18 7 L 19 7 L 19 3 L 15 3 z M 14.03125 5.4375 A 2.5 2.5 0 0 0 11.53125 7.9375 A 2.5 2.5 0 0 0 14.03125 10.4375 A 2.5 2.5 0 0 0 16.53125 7.9375 A 2.5 2.5 0 0 0 14.03125 5.4375 z M 8.03125 5.5 A 2.5 2.5 0 0 0 5.53125 8 A 2.5 2.5 0 0 0 8.03125 10.5 A 2.5 2.5 0 0 0 10.53125 8 A 2.5 2.5 0 0 0 8.03125 5.5 z M 7.96875 11.5625 A 2.5 2.5 0 0 0 5.46875 14.0625 A 2.5 2.5 0 0 0 7.96875 16.5625 A 2.5 2.5 0 0 0 10.46875 14.0625 A 2.5 2.5 0 0 0 7.96875 11.5625 z M 3 15 L 3 19 L 4 19 L 7 19 L 7 18 L 4 18 L 4 15 L 3 15 z "
     />
 <path 
     style="fill:currentColor;fill-opacity:1;stroke:none"      
	 class="ColorScheme-NegativeText"
     d="M 14.943359 11 C 14.217656 11 13.548355 11.179436 12.935547 11.537109 C 12.322675 11.894719 11.836189 12.379316 11.478516 12.992188 C 11.120778 13.605059 10.943359 14.27436 10.943359 15 C 10.943359 15.725704 11.120906 16.394877 11.478516 17.007812 C 11.836189 17.620556 12.322675 18.105217 12.935547 18.462891 C 13.548419 18.820564 14.217656 19 14.943359 19 C 15.669063 19 16.338364 18.820564 16.951172 18.462891 C 17.56398 18.105281 18.048576 17.62062 18.40625 17.007812 C 18.76386 16.394941 18.943359 15.72564 18.943359 15 C 18.943359 14.274296 18.763796 13.604995 18.40625 12.992188 C 18.048576 12.37938 17.56398 11.894783 16.951172 11.537109 C 16.338236 11.179436 15.669127 11 14.943359 11 z M 13.765625 13.015625 C 13.85589 13.015625 13.934027 13.049261 14 13.115234 L 14.943359 14.056641 L 15.884766 13.115234 C 15.950611 13.049261 16.028875 13.015625 16.119141 13.015625 C 16.212922 13.015625 16.293402 13.049261 16.359375 13.115234 L 16.828125 13.583984 C 16.894098 13.649957 16.927734 13.728484 16.927734 13.822266 C 16.927734 13.912531 16.894098 13.990731 16.828125 14.056641 L 15.884766 15 L 16.828125 15.943359 C 16.894098 16.009269 16.927734 16.087469 16.927734 16.177734 C 16.927734 16.271452 16.894098 16.350106 16.828125 16.416016 L 16.359375 16.884766 C 16.293402 16.950739 16.212922 16.984375 16.119141 16.984375 C 16.028875 16.984375 15.950611 16.950739 15.884766 16.884766 L 14.943359 15.943359 L 14 16.884766 C 13.934027 16.950739 13.85589 16.984375 13.765625 16.984375 C 13.671844 16.984375 13.591364 16.950739 13.525391 16.884766 L 13.056641 16.416016 C 12.990668 16.350106 12.958984 16.271452 12.958984 16.177734 C 12.958984 16.087469 12.990668 16.009269 13.056641 15.943359 L 14 15 L 13.056641 14.056641 C 12.990668 13.990731 12.958984 13.912531 12.958984 13.822266 C 12.958984 13.728484 12.990668 13.649957 13.056641 13.583984 L 13.525391 13.115234 C 13.591364 13.049261 13.671844 13.015625 13.765625 13.015625 z "
     />
</svg>
